X: 021
M: C|
L: 1/8
K: F
V: 1
f/g/ | affa geeg | fddf cAA f/g/ | affa geec dfcA AGG ||
f/g/ | affa geeg fddf cAA f/g/ | afge fdcA | dfcA AGG |]
V: 2 clef=bass middle=d
z | f2f2 f2f2 | [a2f2][b2f2] f2f2 | [a2f2][af2]b f2f2 | b2af c'2c :|
z | f2a2 c'2c2 | B2G2 A2F2 | f2a2 c'2cA | B2AF c2C2 |
    f2a2 c'2c2 | d2B2 A2F2 | f2c2 d2A2 | B2AF c2C |]


